X: 1
T: Humours Of Castlecomer, The
M: 6/8
L: 1/8
R: jig
K: Edor
~E3 EFA|BcA B2c|ded dcB|ABA FED|
~E3 EFA|BcA B2c|dcB AFD|E3 E3:|
|:eBe eBe|efg f2e|ded dcB|ABA FED|
eBe eBe|efg f2e|dcB AFD|E3 E3:|
